app/components/CryptoIcons/cc.svg

<?xml version="1.0" encoding="UTF-8" standalone="no"?>
<svg
   xmlns:dc="http://purl.org/dc/elements/1.1/"
   xmlns:cc="http://creativecommons.org/ns#"
   xmlns:rdf="http://www.w3.org/1999/02/22-rdf-syntax-ns#"
   xmlns:svg="http://www.w3.org/2000/svg"
   xmlns="http://www.w3.org/2000/svg"
   xmlns:sodipodi="http://sodipodi.sourceforge.net/DTD/sodipodi-0.dtd"
   xmlns:inkscape="http://www.inkscape.org/namespaces/inkscape"
   width="31.999619"
   height="31.999998"
   viewBox="0 0 31.999619 31.999998"
   version="1.1"
   xml:space="preserve"
   style="clip-rule:evenodd;fill-rule:evenodd;stroke-linejoin:round;stroke-miterlimit:1.41420996"
   id="svg3774"
   sodipodi:docname="cc2.svg"
   inkscape:version="0.92.2 (5c3e80d, 2017-08-06)"><metadata
     id="metadata3778"><rdf:RDF><cc:Work
         rdf:about=""><dc:format>image/svg+xml</dc:format><dc:type
           rdf:resource="http://purl.org/dc/dcmitype/StillImage" /><dc:title></dc:title></cc:Work></rdf:RDF></metadata><sodipodi:namedview
     pagecolor="#ffffff"
     bordercolor="#666666"
     borderopacity="1"
     objecttolerance="10"
     gridtolerance="10"
     guidetolerance="10"
     inkscape:pageopacity="0"
     inkscape:pageshadow="2"
     inkscape:window-width="1918"
     inkscape:window-height="1053"
     id="namedview3776"
     showgrid="false"
     inkscape:zoom="1.7258772"
     inkscape:cx="-144.57913"
     inkscape:cy="-38.953008"
     inkscape:window-x="0"
     inkscape:window-y="25"
     inkscape:window-maximized="0"
     inkscape:current-layer="svg3774"
     units="px" /><g
     id="g3765"
     inkscape:export-xdpi="6.7531285"
     inkscape:export-ydpi="6.7531285"
     transform="matrix(0.07027035,0,0,0.07034509,-0.04253394,-0.03608408)"><path
       d="m 191.75,4.48 c 15.18,-3.19 30.73,-4.21 46.23,-3.92 9.7,-0.15 19.34,1.01 28.89,2.61 18.58,2.55 36.47,8.46 53.94,15.08 12.69,5.67 26.02,11.03 36.32,20.64 2.89,2.1 1.33,6.29 -1.21,7.93 -5.92,3.79 -13.01,4.89 -19.75,6.37 -30.39,5.22 -61.33,7.56 -91.17,15.66 -13.39,3.04 -26.26,7.92 -38.99,12.98 -23.67,10.59 -45.43,26.14 -61.17,46.93 -3,4.41 -5.93,8.86 -8.7,13.42 -2.49,4.87 -5.02,9.72 -7.05,14.81 -1.51,3.64 -2.93,7.31 -4.25,11.02 -2.69,7.87 -4.01,16.08 -5.99,24.14 -0.63,5.29 -0.98,10.63 -2.08,15.86 -0.72,11.99 -0.37,24.01 -0.28,36.01 -0.02,4.01 1.08,7.92 1.14,11.93 0.03,3.7 0.6,7.37 1.57,10.94 1.91,10.04 4.22,20.12 8.46,29.48 5.5,13.26 14.07,25.69 26.26,33.59 10.12,7.52 22.62,10.72 34.88,12.62 16.38,2.13 32.97,0.18 49.12,-2.75 8.45,-1.53 16.83,-3.44 25.14,-5.66 5.29,-1.48 10.71,-2.46 15.92,-4.23 1.99,-0.38 4.03,-0.5 6.06,-0.57 -6.52,5.81 -13.09,11.61 -20.49,16.3 -25.16,16.23 -54.43,24.68 -83.62,30.14 -13.21,2.7 -26.63,4.3 -39.92,6.59 -15.14,2.19 -30.82,4 -44.47,11.41 -4.09,2.87 -7.23,6.75 -10.08,10.79 -0.86,1.74 -2.46,0.05 -3.42,-0.64 -3.12,-3.55 -7.1,-6.17 -10.46,-9.45 C 69,391.04 65.45,387.54 62.05,383.9 56.5,377.45 50.81,371.09 45.92,364.13 36.17,350.93 27.54,336.77 21.21,321.61 c -0.28,-0.12 -0.82,-0.36 -1.1,-0.49 -0.79,-4.35 -3.02,-8.21 -4.48,-12.34 C 12.28,299.69 9.21,290.46 7.2,280.97 6.36,278.08 5.72,275.13 5.25,272.16 4.16,268.84 3.67,265.36 3.41,261.9 1.55,253.71 1.91,245.27 0.72,237 0.76,230.1 0.26,223.15 1.08,216.28 2.01,210.57 1.63,204.72 2.81,199.02 3.97,194.41 3.74,189.56 5.2,185 c 1.42,-8.11 3.49,-16.09 5.97,-23.94 0.63,-2.02 1.27,-4.04 1.96,-6.03 1.37,-3.57 2.61,-7.19 3.89,-10.8 0.78,-1.63 1.37,-3.35 1.9,-5.08 0.27,-0.28 0.8,-0.84 1.07,-1.12 1.19,-3.59 2.82,-7.01 4.7,-10.29 1.68,-3.42 3.41,-6.82 5.34,-10.11 0.22,-0.38 0.65,-1.14 0.86,-1.53 0.64,-1.36 1.36,-2.68 2.13,-3.97 C 45.07,93.33 59,75.52 75.9,60.83 96.74,42.17 121.01,27.39 146.95,17.05 161.42,11.39 176.42,7.09 191.75,4.48 Z"
       style="fill:url(#_Linear1);fill-rule:nonzero"
       id="path3761"
       inkscape:connector-curvature="0" /><path
       d="m 366.04,64.06 c 4.17,-2.43 7.06,-6.38 9.95,-10.13 26.84,22.75 47.95,52.04 61.72,84.38 18.59,43.52 23.24,92.89 12.83,139.07 -8.06,36.55 -25.28,71.06 -49.82,99.32 -35.02,41.08 -85.22,69.03 -138.76,76.41 -24.61,3.62 -49.71,2.66 -74.29,-0.71 -18.81,-2.82 -37.36,-7.66 -54.78,-15.34 -9.52,-4.19 -19.02,-9.09 -26.44,-16.52 -1.92,-1.67 -3.13,-4.45 -1.87,-6.88 1.92,-2.94 5.35,-4.41 8.56,-5.46 9.25,-2.68 18.76,-4.22 28.26,-5.69 17.17,-2.95 34.52,-4.91 51.55,-8.67 28.32,-6.11 56.64,-14.78 81.14,-30.67 16.62,-10.6 31.3,-24.44 42.09,-40.99 15.5,-23.38 22.66,-51.39 24.37,-79.16 0.86,-20.66 0.39,-41.51 -3.94,-61.8 -3.95,-17.52 -10.86,-35.17 -23.94,-47.93 -10.04,-10.26 -23.6,-16.65 -37.66,-19.09 -23.32,-4.35 -47.14,-0.14 -69.98,4.97 -10.7,2.53 -21.25,5.72 -32.06,7.79 15.38,-14.48 34.22,-24.84 54.03,-31.92 11.36,-4.21 23.17,-6.97 34.93,-9.76 25.74,-5.79 52.08,-8.04 78.05,-12.46 8.98,-1.88 18.23,-3.72 26.06,-8.76 z"
       style="fill:#36b0f3;fill-rule:nonzero"
       id="path3763"
       inkscape:connector-curvature="0" /></g><defs
     id="defs3772"><linearGradient
       id="_Linear1"
       x1="0"
       y1="0"
       x2="1"
       y2="0"
       gradientUnits="userSpaceOnUse"
       gradientTransform="matrix(358.082,0,0,404.849,0.60529,202.937)"><stop
         offset="0"
         style="stop-color:rgb(255,244,0);stop-opacity:1"
         id="stop3767" /><stop
         offset="1"
         style="stop-color:rgb(255,159,0);stop-opacity:1"
         id="stop3769" /></linearGradient></defs></svg>

<?xml version="1.0" encoding="UTF-8" standalone="no"?>
<!DOCTYPE svg PUBLIC "-//W3C//DTD SVG 1.1//EN" "http://www.w3.org/Graphics/SVG/1.1/DTD/svg11.dtd">
<svg width="100%" height="100%" viewBox="0 0 456 456" version="1.1" xmlns="http://www.w3.org/2000/svg" xmlns:xlink="http://www.w3.org/1999/xlink" xml:space="preserve" xmlns:serif="http://www.serif.com/" style="fill-rule:evenodd;clip-rule:evenodd;stroke-linejoin:round;stroke-miterlimit:1.41421;">
    <g>
        <path d="M191.75,4.48C206.93,1.29 222.48,0.27 237.98,0.56C247.68,0.41 257.32,1.57 266.87,3.17C285.45,5.72 303.34,11.63 320.81,18.25C333.5,23.92 346.83,29.28 357.13,38.89C360.02,40.99 358.46,45.18 355.92,46.82C350,50.61 342.91,51.71 336.17,53.19C305.78,58.41 274.84,60.75 245,68.85C231.61,71.89 218.74,76.77 206.01,81.83C182.34,92.42 160.58,107.97 144.84,128.76C141.84,133.17 138.91,137.62 136.14,142.18C133.65,147.05 131.12,151.9 129.09,156.99C127.58,160.63 126.16,164.3 124.84,168.01C122.15,175.88 120.83,184.09 118.85,192.15C118.22,197.44 117.87,202.78 116.77,208.01C116.05,220 116.4,232.02 116.49,244.02C116.47,248.03 117.57,251.94 117.63,255.95C117.66,259.65 118.23,263.32 119.2,266.89C121.11,276.93 123.42,287.01 127.66,296.37C133.16,309.63 141.73,322.06 153.92,329.96C164.04,337.48 176.54,340.68 188.8,342.58C205.18,344.71 221.77,342.76 237.92,339.83C246.37,338.3 254.75,336.39 263.06,334.17C268.35,332.69 273.77,331.71 278.98,329.94C280.97,329.56 283.01,329.44 285.04,329.37C278.52,335.18 271.95,340.98 264.55,345.67C239.39,361.9 210.12,370.35 180.93,375.81C167.72,378.51 154.3,380.11 141.01,382.4C125.87,384.59 110.19,386.4 96.54,393.81C92.45,396.68 89.31,400.56 86.46,404.6C85.6,406.34 84,404.65 83.04,403.96C79.92,400.41 75.94,397.79 72.58,394.51C69,391.04 65.45,387.54 62.05,383.9C56.5,377.45 50.81,371.09 45.92,364.13C36.17,350.93 27.54,336.77 21.21,321.61C20.93,321.49 20.39,321.25 20.11,321.12C19.32,316.77 17.09,312.91 15.63,308.78C12.28,299.69 9.21,290.46 7.2,280.97C6.36,278.08 5.72,275.13 5.25,272.16C4.16,268.84 3.67,265.36 3.41,261.9C1.55,253.71 1.91,245.27 0.72,237C0.76,230.1 0.26,223.15 1.08,216.28C2.01,210.57 1.63,204.72 2.81,199.02C3.97,194.41 3.74,189.56 5.2,185C6.62,176.89 8.69,168.91 11.17,161.06C11.8,159.04 12.44,157.02 13.13,155.03C14.5,151.46 15.74,147.84 17.02,144.23C17.8,142.6 18.39,140.88 18.92,139.15C19.19,138.87 19.72,138.31 19.99,138.03C21.18,134.44 22.81,131.02 24.69,127.74C26.37,124.32 28.1,120.92 30.03,117.63C30.25,117.25 30.68,116.49 30.89,116.1C31.53,114.74 32.25,113.42 33.02,112.13C45.07,93.33 59,75.52 75.9,60.83C96.74,42.17 121.01,27.39 146.95,17.05C161.42,11.39 176.42,7.09 191.75,4.48Z" style="fill:url(#_Linear1);fill-rule:nonzero;"/>
        <path d="M366.04,64.06C370.21,61.63 373.1,57.68 375.99,53.93C402.83,76.68 423.94,105.97 437.71,138.31C456.3,181.83 460.95,231.2 450.54,277.38C442.48,313.93 425.26,348.44 400.72,376.7C365.7,417.78 315.5,445.73 261.96,453.11C237.35,456.73 212.25,455.77 187.67,452.4C168.86,449.58 150.31,444.74 132.89,437.06C123.37,432.87 113.87,427.97 106.45,420.54C104.53,418.87 103.32,416.09 104.58,413.66C106.5,410.72 109.93,409.25 113.14,408.2C122.39,405.52 131.9,403.98 141.4,402.51C158.57,399.56 175.92,397.6 192.95,393.84C221.27,387.73 249.59,379.06 274.09,363.17C290.71,352.57 305.39,338.73 316.18,322.18C331.68,298.8 338.84,270.79 340.55,243.02C341.41,222.36 340.94,201.51 336.61,181.22C332.66,163.7 325.75,146.05 312.67,133.29C302.63,123.03 289.07,116.64 275.01,114.2C251.69,109.85 227.87,114.06 205.03,119.17C194.33,121.7 183.78,124.89 172.97,126.96C188.35,112.48 207.19,102.12 227,95.04C238.36,90.83 250.17,88.07 261.93,85.28C287.67,79.49 314.01,77.24 339.98,72.82C348.96,70.94 358.21,69.1 366.04,64.06Z" style="fill:rgb(54,176,243);fill-rule:nonzero;"/>
    </g>
    <defs>
        <linearGradient id="_Linear1" x1="0" y1="0" x2="1" y2="0" gradientUnits="userSpaceOnUse" gradientTransform="matrix(358.082,0,0,404.849,0.60529,202.937)"><stop offset="0" style="stop-color:rgb(255,244,0);stop-opacity:1"/><stop offset="1" style="stop-color:rgb(255,159,0);stop-opacity:1"/></linearGradient>
    </defs>
</svg>
